X: 796
T: Polly Put The Kettle On
B: jims roots
M:4/4
L:1/8
Q: 1/4=100
K:Dmaj
V:1 
%Z: Moxhe
%S: <a href="http://thesession.org/tunes/8267#setting27301" rel="nofollow">http://thesession.org/tunes/8267#setting27301</a>
%R: strathspey
fg |: "D"abag fddf | "G"gBed "A"cAAf | "D"abag fdfa |
[1 "G"(3BBB "A"cA "D"d2 fg:| [2 "G"(3BBB "A"cA "D"d2 de||: "D"fd"A"ge "D"fddf |
"G"gfed "A"cAAg | "D"fd"A"ge "D"fdfa | "G"(3BBB "A"cA "D"d2de | "D"fd"A"ge "D"fddf |
"G"gfed "A"cAAe | "D"fd"A"ge "D"fdfa | [1 "G"(3BBB "A"cA "D"defg :| [2 "G"(3BBB "A"cA "D"d3d |]
% abcbook-tune_id 6298c27904276565c069ca0a


% abcbook-boost 0
% abcbook-tablature 
% abcbook-transpose 
% abcbook-lastupdated 1654178426572
% abcbook-soundfonts 
% abcbook-repeats 1


